X: 218
T: Scattery Island
R: jig
M: 6/8
L: 1/8
K: Gmaj
|:d2 B BAB|dBB Bge|d2B BAB|GEE Ege|
d2 B BAB|dBB BAB|efg fed|1 e3 ege:|2 e3 e2f||
|:ggd gab|aag f2d|deg fed|eed ABd|
ggd gab|aag f2d|efg fed|1 e3 e2f:|2 e3 Bge|| 

